packages/core/src/public/images/app/wallet/wallet-demo-bg-light.svg

<?xml version="1.0" encoding="UTF-8" standalone="no" ?>
<!DOCTYPE svg PUBLIC "-//W3C//DTD SVG 1.1//EN" "http://www.w3.org/Graphics/SVG/1.1/DTD/svg11.dtd">
<svg xmlns="http://www.w3.org/2000/svg" xmlns:xlink="http://www.w3.org/1999/xlink" version="1.1" width="64" height="40" viewBox="0 0 64 40" xml:space="preserve">
<desc>Created with Fabric.js 5.2.4</desc>
<defs>
</defs>
<rect x="0" y="0" width="100%" height="100%" fill="transparent"></rect>
<g transform="matrix(0 0 0 0 0 0)" id="768c50c0-ed0f-4196-a286-c45fb2505238"  >
</g>
<g transform="matrix(1 0 0 1 32 20)" id="17445338-b42a-49c2-859c-ab31a199b0ca"  >
<rect style="stroke: none; stroke-width: 1; stroke-dasharray: none; stroke-linecap: butt; stroke-dashoffset: 0; stroke-linejoin: miter; stroke-miterlimit: 4; fill: rgb(255,255,255); fill-rule: nonzero; opacity: 1; visibility: hidden;" vector-effect="non-scaling-stroke"  x="-32" y="-20" rx="0" ry="0" width="64" height="40" />
</g>
<g transform="matrix(0.15 -0.09 0.09 0.15 32 20)"  >
<path style="stroke: rgb(0,0,0); stroke-width: 0; stroke-dasharray: none; stroke-linecap: butt; stroke-dashoffset: 0; stroke-linejoin: miter; stroke-miterlimit: 4; fill: rgb(255,255,255); fill-rule: nonzero; opacity: 1;" vector-effect="non-scaling-stroke"  transform=" translate(-172.38, -29.46)" d="M 35.754 1.829 L 32.763999999999996 18.784 L 22.385 18.784 C 12.703000000000001 18.784 3.4750000000000014 26.628999999999998 1.764000000000003 36.311 L 1.040000000000003 40.431 C -0.663 50.115 5.797 57.96 15.48 57.96 L 24.136000000000003 57.96 C 31.193000000000005 57.96 37.916000000000004 52.247 39.156000000000006 45.19 L 47.129 0 L 35.754 1.829 Z M 28.39 43.59 C 28.008 45.77 26.045 47.545 23.865000000000002 47.545 L 18.607000000000003 47.545 C 14.255000000000003 47.545 11.343000000000004 44.012 12.107000000000003 39.652 L 12.560000000000002 37.082 C 13.332000000000003 32.731 17.485000000000003 29.19 21.837000000000003 29.19 L 30.929000000000002 29.19 L 28.389000000000003 43.59 Z M 115.681 57.958000000000006 L 122.49199999999999 19.324000000000005 L 133.26399999999998 19.324000000000005 L 126.45299999999997 57.958000000000006 L 115.67299999999997 57.958000000000006 L 115.68099999999997 57.958000000000006 Z M 116.846 19.770000000000003 L 115.224 28.963 C 110.12100000000001 27.377000000000002 104.855 27.882 103.238 28.204 C 101.491 38.124 99.741 48.047 97.992 57.968 L 87.212 57.968 L 93.677 21.32 C 97.183 19.868000000000002 105.793 16.921 116.846 19.77 Z M 73.17 18.777000000000005 L 64.784 18.777000000000005 C 56.614000000000004 18.777000000000005 48.825 25.397000000000006 47.38400000000001 33.56700000000001 L 45.69 43.17 C 44.25 51.34 49.699999999999996 57.96 57.870999999999995 57.96 L 75.708 57.96 L 77.538 47.578 L 60.775 47.578 C 58.054 47.578 56.232 45.374 56.717 42.645 L 56.772999999999996 42.319 L 83.79899999999999 42.319 L 85.34299999999999 33.567 C 86.78299999999999 25.397 81.33299999999998 18.777 73.16199999999999 18.777 L 73.16999999999999 18.777 Z M 74.53 32.74 L 74.467 33.297000000000004 L 58.397 33.297000000000004 L 58.484 32.804 C 58.969 30.083000000000002 61.451 27.688000000000002 64.18 27.688000000000002 L 70.45700000000001 27.688000000000002 C 73.15400000000001 27.688000000000002 74.977 30.043000000000003 74.53 32.74 Z M 175.29399999999998 19.324 C 171.62199999999999 29.087000000000003 163.207 45.695 155.05499999999998 57.958 L 144.27499999999998 57.958 C 140.533 46.287 138.11599999999999 30.025 137.65499999999997 19.323999999999998 L 148.43599999999998 19.323999999999998 C 148.62999999999997 22.814 150.19299999999998 35.762 151.97599999999997 44.807 C 156.86699999999996 36.007000000000005 162.25899999999996 24.462000000000003 164.50599999999997 19.324 L 175.29399999999998 19.324 Z M 205.468 50.304 C 205.539 51.444 205.708 52.596000000000004 205.97899999999998 53.759 C 206.24699999999999 54.924 206.671 56.174 207.249 57.511 L 201.212 58.403000000000006 C 200.599 57.313 200.09799999999998 56.001000000000005 199.707 54.465 C 198.677 55.456 197.27599999999998 56.446000000000005 195.505 57.437000000000005 C 193.733 58.42700000000001 191.51 58.923 188.835 58.923 C 186.655 58.923 184.75300000000001 58.589 183.127 57.92 C 181.501 57.251000000000005 180.13 56.298 179.013 55.06 C 177.897 53.822 177.038 52.348 176.439 50.639 C 175.837 48.929 175.475 47.06 175.35 45.029 C 175.1416712208759 41.74701735921241 175.50472898125184 38.45378233429249 176.423 35.29600000000001 C 177.342 32.126000000000005 178.828 29.303000000000004 180.88 26.826000000000008 C 182.93099999999998 24.35000000000001 185.57 22.35600000000001 188.796 20.845000000000006 C 192.022 19.334000000000007 195.838 18.578000000000007 200.248 18.578000000000007 C 200.792 18.578000000000007 201.338 18.604000000000006 201.887 18.652000000000008 C 202.435 18.70200000000001 203.00900000000001 18.777000000000008 203.609 18.875000000000007 L 206.7 1.489 L 213.83499999999998 0.30100000000000016 L 206.03199999999998 43.766000000000005 C 205.8614524690708 44.853868387312 205.70543856201297 45.94396555842114 205.56399999999996 47.03600000000004 C 205.42869830789417 48.11984420381115 205.3965542228814 49.214082431119856 205.468 50.304000000000016 Z M 189.886 53.054 C 191.96699999999998 53.054 193.71 52.620000000000005 195.119 51.753 C 196.526 50.887 197.74 49.883 198.76 48.744 C 198.76154408660094 46.87666408821527 198.9201026589902 45.012764583251034 199.23399999999998 43.172000000000004 L 202.54999999999998 24.596999999999998 C 202.05674849580097 24.493207249657914 201.5556570491854 24.430988952548105 201.052 24.410999999999998 C 200.53133859778197 24.387084585472465 200.01020982627222 24.374748203805254 199.48899999999998 24.374000000000006 C 196.666 24.374 194.148 24.919 191.937 26.009 C 189.726 27.099 187.871 28.561 186.375 30.393 C 184.877 32.225 183.769 34.343 183.05 36.744 C 182.33100000000002 39.147999999999996 182.053 41.661 182.214 44.286 C 182.284 45.426 182.474 46.515 182.787 47.555 C 183.07782569107462 48.55454922227818 183.53781840400524 49.496857823914006 184.14700000000002 50.341 C 184.75362670492606 51.16923939185277 185.54577358454557 51.84391701954427 186.46 52.311 C 187.407 52.807 188.549 53.054 189.886 53.054 Z M 229.551 58.923 C 227.02499999999998 58.923 224.82299999999998 58.563 222.94699999999997 57.846000000000004 C 221.06999999999996 57.128 219.47299999999998 56.136 218.15699999999998 54.874 C 216.85277796755037 53.62746669986335 215.82373963044222 52.121889258612754 215.136 50.454 C 214.43369192235986 48.75052611349355 214.02133317516748 46.94155560941688 213.916 45.102 C 213.702 41.637 214.017 38.293000000000006 214.859 35.072 C 215.70100000000002 31.853 217.012 29.006000000000004 218.792 26.528000000000002 C 220.5444688228999 24.07500215711844 222.8340128845567 22.05463514603286 225.48599999999996 20.62100000000001 C 228.17 19.161 231.26999999999998 18.430000000000003 234.78799999999998 18.430000000000003 C 236.81799999999998 18.430000000000003 238.57999999999998 18.690000000000005 240.07399999999998 19.210000000000004 C 241.56599999999997 19.730000000000004 242.79799999999997 20.436000000000003 243.771 21.327000000000005 C 244.72030414650436 22.189552209565825 245.48032149512315 23.23968370738855 246.003 24.411 C 246.521 25.575000000000006 246.81699999999998 26.777000000000005 246.89399999999998 28.015000000000004 C 247.03699999999998 30.344000000000005 246.73699999999997 32.312000000000005 245.99399999999997 33.92100000000001 C 245.24999999999997 35.531000000000006 244.21799999999996 36.88100000000001 242.89899999999997 37.971000000000004 C 241.57899999999998 39.06100000000001 240.009 39.902 238.18899999999996 40.496 C 236.32216243771978 41.10240135645493 234.41427850981717 41.57427595904707 232.47999999999996 41.908 C 230.47863601889546 42.257507252296854 228.4590594376015 42.49321911647168 226.43099999999995 42.614000000000004 C 224.38199999999995 42.73800000000001 222.44399999999996 42.85 220.61899999999994 42.94800000000001 C 220.5938968554864 43.26937384098332 220.5888871063344 43.59200168637417 220.60399999999996 43.91400000000001 L 220.63999999999996 44.50900000000001 C 220.70999999999995 45.64900000000001 220.91299999999995 46.727000000000004 221.24799999999996 47.74100000000001 C 221.58309286524323 48.75745647280906 222.16274312376063 49.67603730310172 222.93599999999995 50.416000000000004 C 223.72599999999994 51.185 224.79099999999994 51.790000000000006 226.13099999999994 52.236000000000004 C 227.46999999999994 52.682 229.20599999999993 52.904 231.33599999999996 52.904 C 232.27599999999995 52.904 233.24999999999994 52.819 234.25399999999996 52.644000000000005 C 235.21928683370888 52.48090678531627 236.17346997993658 52.257807610769504 237.11099999999996 51.97600000000001 C 238.01099999999997 51.70400000000001 238.81099999999995 51.43200000000001 239.51299999999995 51.15800000000001 C 240.21399999999994 50.88700000000001 240.70599999999996 50.62700000000001 240.98799999999994 50.37800000000001 L 241.94299999999996 56.248000000000005 C 240.98499999999996 56.794000000000004 239.42399999999995 57.376000000000005 237.25799999999995 57.99400000000001 C 235.09199999999996 58.614000000000004 232.52299999999994 58.92300000000001 229.55099999999996 58.92300000000001 Z M 221.18599999999998 37.673 C 224.052 37.575 226.66699999999997 37.389 229.027 37.116 C 231.38799999999998 36.845 233.414 36.373 235.107 35.704 C 236.799 35.036 238.094 34.133 238.99 32.992 C 239.886 31.854 240.27700000000002 30.368 240.16500000000002 28.534 C 240.12719328102912 28.04776026662482 240.00962224725254 27.57105702335249 239.817 27.122999999999998 C 239.613 26.627999999999997 239.288 26.169999999999998 238.841 25.747999999999998 C 238.394 25.327999999999996 237.791 24.980999999999998 237.031 24.708 C 236.27200000000002 24.436999999999998 235.346 24.298 234.257 24.298 C 232.522 24.298 230.924 24.671 229.46 25.413999999999998 C 228.00304987571798 26.150130802402526 226.69180035742738 27.144579726480785 225.59 28.349000000000004 C 224.476 29.563999999999997 223.547 30.974999999999998 222.805 32.583999999999996 C 222.0571552200502 34.20692992366591 221.51334332736477 35.916292939031045 221.186 37.673 Z M 291.481 18.504 C 293.65999999999997 18.504 295.525 18.838 297.078 19.507 C 298.63 20.176000000000002 299.89799999999997 21.080000000000002 300.88599999999997 22.219 C 301.87199999999996 23.359 302.609 24.684 303.099 26.194000000000003 C 303.58799999999997 27.705000000000002 303.885 29.303000000000004 303.988 30.986000000000004 C 304.055 32.07600000000001 304.041 33.252 303.945 34.516000000000005 C 303.8531181551328 35.7495472569458 303.6932081872895 36.97708160299988 303.466 38.193000000000005 L 299.927 57.95700000000001 L 293.017 57.95700000000001 L 296.276 39.68000000000001 C 296.45300000000003 38.540000000000006 296.659 37.26500000000001 296.89500000000004 35.852000000000004 C 297.13000000000005 34.44200000000001 297.20500000000004 33.042 297.12000000000006 31.655000000000005 C 297.06329041835914 30.721389862792982 296.8940658582761 29.798041568689154 296.61600000000004 28.904999999999998 C 296.338 28.015000000000004 295.92 27.247000000000003 295.36000000000007 26.602000000000004 C 294.80000000000007 25.960000000000004 294.0370000000001 25.439000000000004 293.07200000000006 25.042000000000005 C 292.10600000000005 24.646000000000004 290.93000000000006 24.448000000000004 289.54300000000006 24.448000000000004 C 287.9580000000001 24.448000000000004 286.44200000000006 24.758000000000003 284.9940000000001 25.377000000000002 C 283.5460000000001 25.997000000000003 282.3470000000001 26.627000000000002 281.3960000000001 27.272000000000002 C 281.5370000000001 27.966 281.66600000000005 28.645000000000003 281.7820000000001 29.315 C 281.8970000000001 29.983 281.9750000000001 30.641000000000002 282.0140000000001 31.283 C 282.08500000000015 32.423 282.0680000000001 33.575 281.9660000000001 34.738 C 281.8651713693434 35.89399923013942 281.72576031794824 37.046308279350534 281.5480000000001 38.193 L 278.0080000000001 57.956999999999994 L 271.0990000000001 57.956999999999994 L 274.3580000000001 39.67999999999999 C 274.53500000000014 38.53999999999999 274.7290000000001 37.25299999999999 274.9370000000001 35.81499999999999 C 275.1454781280207 34.38838883145601 275.2061329235888 32.94406745632617 275.1180000000001 31.50499999999999 C 275.0635901864056 30.58733734291206 274.90797989022747 29.678492725147837 274.6540000000001 28.794999999999987 C 274.4020000000001 27.92899999999999 274.0220000000001 27.17299999999999 273.5120000000001 26.52799999999999 C 273.0010000000001 25.88499999999999 272.33800000000014 25.376999999999992 271.52300000000014 25.004999999999992 C 270.70800000000014 24.633999999999993 269.6800000000001 24.447999999999993 268.44300000000015 24.447999999999993 C 267.2040000000002 24.447999999999993 266.0070000000002 24.522999999999993 264.8530000000002 24.670999999999992 C 263.6980000000002 24.818999999999992 262.73100000000017 25.017999999999994 261.95500000000015 25.264999999999993 L 256.09000000000015 57.956999999999994 L 249.18000000000015 57.956999999999994 L 255.81100000000015 20.806999999999995 C 257.9970000000001 20.113999999999994 260.40200000000016 19.556999999999995 263.0260000000001 19.135999999999996 C 265.65000000000015 18.714999999999996 268.0030000000001 18.503999999999994 270.08300000000014 18.503999999999994 C 272.16400000000016 18.503999999999994 273.94300000000015 18.863999999999994 275.4250000000001 19.580999999999996 C 276.90500000000014 20.299999999999997 278.10200000000015 21.252999999999997 279.01800000000014 22.440999999999995 C 279.49200000000013 22.095999999999997 280.14800000000014 21.697999999999997 280.98800000000017 21.252999999999997 C 281.92250733981024 20.76601830078429 282.8894648501537 20.344018530375262 283.8820000000002 19.990000000000002 C 285.05193862901484 19.570495168649714 286.2465167386978 19.223175841260765 287.4590000000002 18.950000000000006 C 288.77846082357775 18.649560659301088 290.12777269432934 18.499935325050657 291.48100000000017 18.50399999999999 Z M 323.315 58.923 C 319.253 58.923 315.997 57.723 313.546 55.319 C 311.09499999999997 52.917 309.74 49.611000000000004 309.481 45.400000000000006 C 309.304 42.528000000000006 309.527 39.50600000000001 310.149 36.336000000000006 C 310.772 33.16700000000001 311.892 30.243000000000006 313.511 27.568000000000005 C 315.129 24.894000000000005 317.297 22.690000000000005 320.014 20.956000000000003 C 322.73 19.223000000000003 326.095 18.356 330.107 18.356 C 334.168 18.356 337.425 19.556 339.87600000000003 21.959000000000003 C 342.32700000000006 24.362000000000002 343.68300000000005 27.668000000000003 343.94100000000003 31.878000000000004 C 344.11800000000005 34.751000000000005 343.896 37.773 343.273 40.94200000000001 C 342.65000000000003 44.11300000000001 341.53000000000003 47.03500000000001 339.91200000000003 49.71000000000001 C 338.293 52.385000000000005 336.12500000000006 54.59000000000001 333.40900000000005 56.32200000000001 C 330.69200000000006 58.05600000000001 327.32700000000006 58.92200000000001 323.31500000000005 58.92200000000001 Z M 324.143 53.053000000000004 C 326.37199999999996 53.053000000000004 328.32599999999996 52.410000000000004 330.005 51.121 C 331.68399999999997 49.834 333.068 48.187000000000005 334.159 46.181000000000004 C 335.24899999999997 44.175000000000004 336.042 41.958000000000006 336.536 39.531000000000006 C 337.03000000000003 37.105000000000004 337.208 34.751000000000005 337.068 32.471000000000004 C 336.913 29.946000000000005 336.24399999999997 27.941000000000003 335.06399999999996 26.454000000000004 C 333.881 24.968000000000004 331.95399999999995 24.224000000000004 329.27899999999994 24.224000000000004 C 327.04999999999995 24.224000000000004 325.09599999999995 24.869000000000003 323.4169999999999 26.157000000000004 C 321.73799999999994 27.445000000000004 320.3529999999999 29.092000000000002 319.2629999999999 31.097000000000005 C 318.1719999999999 33.103 317.37999999999994 35.321000000000005 316.8859999999999 37.74700000000001 C 316.3909999999999 40.175000000000004 316.2139999999999 42.528000000000006 316.3549999999999 44.80700000000001 C 316.5099999999999 47.33200000000001 317.1779999999999 49.33700000000001 318.3589999999999 50.82400000000001 C 319.5399999999999 52.31000000000001 321.4679999999999 53.05400000000001 324.1429999999999 53.05400000000001 Z" stroke-linecap="round" />
</g>
</svg>

<svg xmlns="http://www.w3.org/2000/svg" width="64" height="40" viewBox="0 0 64 40" xml:space="preserve"><rect width="100%" height="100%" fill="transparent"/><g transform="scale(0)"/><g transform="translate(32 20)"/><path style="stroke:#000;stroke-width:0;stroke-dasharray:none;stroke-linecap:butt;stroke-dashoffset:0;stroke-linejoin:miter;stroke-miterlimit:4;fill:#fff;fill-rule:nonzero;opacity:1" vector-effect="non-scaling-stroke" transform="matrix(.15 -.09 .09 .15 3.492 31.095)" d="m35.754 1.829-2.99 16.955H22.385c-9.682 0-18.91 7.845-20.621 17.527l-.724 4.12C-.663 50.115 5.797 57.96 15.48 57.96h8.656c7.057 0 13.78-5.713 15.02-12.77L47.129 0 35.754 1.829ZM28.39 43.59c-.382 2.18-2.345 3.955-4.525 3.955h-5.258c-4.352 0-7.264-3.533-6.5-7.893l.453-2.57c.772-4.351 4.925-7.892 9.277-7.892h9.092l-2.54 14.4Zm87.291 14.368 6.811-38.634h10.772l-6.811 38.634h-10.78.008Zm1.165-38.188-1.622 9.193c-5.103-1.586-10.369-1.081-11.986-.759-1.747 9.92-3.497 19.843-5.246 29.764h-10.78l6.465-36.648c3.506-1.452 12.116-4.399 23.169-1.55Zm-43.676-.993h-8.386c-8.17 0-15.959 6.62-17.4 14.79L45.69 43.17c-1.44 8.17 4.01 14.79 12.181 14.79h17.837l1.83-10.382H60.775c-2.721 0-4.543-2.204-4.058-4.933l.056-.326h27.026l1.544-8.752c1.44-8.17-4.01-14.79-12.181-14.79h.008Zm1.36 13.963-.063.557h-16.07l.087-.493c.485-2.721 2.967-5.116 5.696-5.116h6.277c2.697 0 4.52 2.355 4.073 5.052Zm100.764-13.416c-3.672 9.763-12.087 26.371-20.239 38.634h-10.78c-3.742-11.671-6.159-27.933-6.62-38.634h10.781c.194 3.49 1.757 16.438 3.54 25.483 4.891-8.8 10.283-20.345 12.53-25.483h10.788Zm30.174 30.98c.071 1.14.24 2.292.511 3.455.268 1.165.692 2.415 1.27 3.752l-6.037.892c-.613-1.09-1.114-2.402-1.505-3.938-1.03.991-2.431 1.981-4.202 2.972-1.772.99-3.995 1.486-6.67 1.486-2.18 0-4.082-.334-5.708-1.003-1.626-.669-2.997-1.622-4.114-2.86-1.116-1.238-1.975-2.712-2.574-4.421-.602-1.71-.964-3.579-1.089-5.61a28.411 28.411 0 0 1 1.073-9.733c.919-3.17 2.405-5.993 4.457-8.47 2.051-2.476 4.69-4.47 7.916-5.981 3.226-1.511 7.042-2.267 11.452-2.267.544 0 1.09.026 1.639.074.548.05 1.122.125 1.722.223L206.7 1.489l7.135-1.188-7.803 43.465a123.7 123.7 0 0 0-.468 3.27 17.265 17.265 0 0 0-.096 3.268Zm-15.582 2.75c2.081 0 3.824-.434 5.233-1.301 1.407-.866 2.621-1.87 3.641-3.009.002-1.867.16-3.731.474-5.572l3.316-18.575a9.01 9.01 0 0 0-1.498-.186 35.164 35.164 0 0 0-1.563-.037c-2.823 0-5.341.545-7.552 1.635-2.211 1.09-4.066 2.552-5.562 4.384-1.498 1.832-2.606 3.95-3.325 6.351-.719 2.404-.997 4.917-.836 7.542.07 1.14.26 2.229.573 3.269.29 1 .75 1.942 1.36 2.786a6.575 6.575 0 0 0 2.313 1.97c.947.496 2.089.743 3.426.743Zm39.665 5.869c-2.526 0-4.728-.36-6.604-1.077-1.877-.718-3.474-1.71-4.79-2.972a12.935 12.935 0 0 1-3.021-4.42 16.519 16.519 0 0 1-1.22-5.352c-.214-3.465.101-6.809.943-10.03.842-3.219 2.153-6.066 3.933-8.544a19.797 19.797 0 0 1 6.694-5.907c2.684-1.46 5.784-2.191 9.302-2.191 2.03 0 3.792.26 5.286.78 1.492.52 2.724 1.226 3.697 2.117a9.272 9.272 0 0 1 2.232 3.084c.518 1.164.814 2.366.891 3.604.143 2.329-.157 4.297-.9 5.906-.744 1.61-1.776 2.96-3.095 4.05-1.32 1.09-2.89 1.931-4.71 2.525a41.096 41.096 0 0 1-5.709 1.412 53.73 53.73 0 0 1-6.049.706c-2.049.124-3.987.236-5.812.334-.025.321-.03.644-.015.966l.036.595c.07 1.14.273 2.218.608 3.232a6.534 6.534 0 0 0 1.688 2.675c.79.769 1.855 1.374 3.195 1.82 1.339.446 3.075.668 5.205.668.94 0 1.914-.085 2.918-.26a23.56 23.56 0 0 0 2.857-.668c.9-.272 1.7-.544 2.402-.818.701-.271 1.193-.531 1.475-.78l.955 5.87c-.958.546-2.519 1.128-4.685 1.746-2.166.62-4.735.929-7.707.929Zm-8.365-21.25c2.866-.098 5.481-.284 7.841-.557 2.361-.271 4.387-.743 6.08-1.412 1.692-.668 2.987-1.571 3.883-2.712.896-1.138 1.287-2.624 1.175-4.458a4.445 4.445 0 0 0-.348-1.411c-.204-.495-.529-.953-.976-1.375-.447-.42-1.05-.767-1.81-1.04-.759-.271-1.685-.41-2.774-.41-1.735 0-3.333.373-4.797 1.116a13.49 13.49 0 0 0-3.87 2.935c-1.114 1.215-2.043 2.626-2.785 4.235a21.626 21.626 0 0 0-1.619 5.089Zm70.295-19.169c2.179 0 4.044.334 5.597 1.003 1.552.669 2.82 1.573 3.808 2.712.986 1.14 1.723 2.465 2.213 3.975.489 1.511.786 3.109.889 4.792.067 1.09.053 2.266-.043 3.53a33.61 33.61 0 0 1-.479 3.677l-3.539 19.764h-6.91l3.259-18.277c.177-1.14.383-2.415.619-3.828.235-1.41.31-2.81.225-4.197a11.62 11.62 0 0 0-.504-2.75c-.278-.89-.696-1.658-1.256-2.303-.56-.642-1.323-1.163-2.288-1.56-.966-.396-2.142-.594-3.529-.594-1.585 0-3.101.31-4.549.929-1.448.62-2.647 1.25-3.598 1.895.141.694.27 1.373.386 2.043.115.668.193 1.326.232 1.968.071 1.14.054 2.292-.048 3.455-.1 1.156-.24 2.308-.418 3.455l-3.54 19.764h-6.909l3.259-18.277c.177-1.14.371-2.427.579-3.865.208-1.427.27-2.87.181-4.31a12.483 12.483 0 0 0-.464-2.71c-.252-.866-.632-1.622-1.142-2.267-.511-.643-1.174-1.151-1.989-1.523-.815-.371-1.843-.557-3.08-.557-1.239 0-2.436.075-3.59.223-1.155.148-2.122.347-2.898.594l-5.865 32.692h-6.91l6.631-37.15c2.186-.693 4.591-1.25 7.215-1.671 2.624-.421 4.977-.632 7.057-.632 2.081 0 3.86.36 5.342 1.077 1.48.719 2.677 1.672 3.593 2.86.474-.345 1.13-.743 1.97-1.188a22.936 22.936 0 0 1 2.894-1.263c1.17-.42 2.365-.767 3.577-1.04 1.32-.3 2.669-.45 4.022-.446Zm31.834 40.419c-4.062 0-7.318-1.2-9.769-3.604-2.451-2.402-3.806-5.708-4.065-9.919-.177-2.872.046-5.894.668-9.064.623-3.169 1.743-6.093 3.362-8.768 1.618-2.674 3.786-4.878 6.503-6.612 2.716-1.733 6.081-2.6 10.093-2.6 4.061 0 7.318 1.2 9.769 3.603 2.451 2.403 3.807 5.709 4.065 9.919.177 2.873-.045 5.895-.668 9.064-.623 3.171-1.743 6.093-3.361 8.768-1.619 2.675-3.787 4.88-6.503 6.612-2.717 1.734-6.082 2.6-10.094 2.6Zm.828-5.87c2.229 0 4.183-.643 5.862-1.932 1.679-1.287 3.063-2.934 4.154-4.94 1.09-2.006 1.883-4.223 2.377-6.65.494-2.426.672-4.78.532-7.06-.155-2.525-.824-4.53-2.004-6.017-1.183-1.486-3.11-2.23-5.785-2.23-2.229 0-4.183.645-5.862 1.933-1.679 1.288-3.064 2.935-4.154 4.94-1.091 2.006-1.883 4.224-2.377 6.65-.495 2.428-.672 4.781-.531 7.06.155 2.525.823 4.53 2.004 6.017 1.181 1.486 3.109 2.23 5.784 2.23Z"/></svg>
